X: 77
T: No_174.krn
N: Derived from No_174.krn
%%abc-version 2.0
%%abcx-abcm2ps-target-version 5.9.1 (29 Sep 2008)
%%abc-creator hum2abc beta
%%abcx-conversion-date 2019/03/15 08:29:13
%%humdrum-veritas 2000932709
%%humdrum-veritas-data 1636962857
%%linebreak <none>
%%barnumbers 0
L: 1/16
M: 2/4
%%staves {1 2}
V: 1 clef=treble
V: 2 clef=bass
K: A
[V:1] [K:clef=treble][M:2/4]F,F3 F3E | 
[V:2] [K:clef=bass][M:2/4]G,,!accent!G,,2 z G,,!accent!G,,2 z | 
[V:1] FF3 F3E | 
[V:2] z8 | 
[V:1] DB,3 B,3A, | 
[V:2] z8 | 
[V:1] B,B,3 B,3A, | 
[V:2] z8 | 
[V:1] A,F,3F,4 | 
[V:2] z8 | 
[V:1] A,B,3 C2 (3B,CB, | 
[V:2] z8 | 
[V:1] A,4F,4 | 
[V:2] z8 | 
[V:1] A,4F,3F, | 
[V:2] z8 | 
[V:1] F,8 |]  
[V:2] z8 |]  



